assets/layers/slow_roads/woonerf.svg

<?xml version="1.0" encoding="UTF-8" standalone="yes"?>
<svg xmlns="http://www.w3.org/2000/svg" xmlns:xlink="http://www.w3.org/1999/xlink" width="372px" height="250px" viewBox="0 0 372 250" version="1.1">
  <g id="surface1">
    <path style="fill:none;stroke-width:0.301;stroke-linecap:butt;stroke-linejoin:miter;stroke:rgb(0%,0%,0%);stroke-opacity:1;stroke-miterlimit:3.863;" d="M 11.947711 103.576168 L 143.44739 103.514429 C 149.707652 103.514429 154.762077 98.451843 154.762077 92.183726 L 154.822288 11.541421 C 154.822288 5.21319 149.766235 0.150604 143.509227 0.150604 L 11.466027 0.150604 C 5.207392 0.150604 0.149713 5.21319 0.149713 11.541421 L 0.149713 92.365693 C 0.149713 98.633811 5.205765 103.696396 11.4644 103.696396 Z M 11.947711 103.576168 " transform="matrix(2.400434,0,0,2.40428,0,0.161343)"/>
    <path style="fill-rule:evenodd;fill:rgb(0%,44.313726%,70.19608%);fill-opacity:1;stroke-width:0.301;stroke-linecap:butt;stroke-linejoin:miter;stroke:rgb(0%,44.313726%,70.19608%);stroke-opacity:1;stroke-miterlimit:3.863;" d="M 145.793971 94.656529 L 9.23824 94.656529 L 9.23824 9.190471 L 145.793971 9.190471 Z M 145.793971 94.656529 " transform="matrix(2.400434,0,0,2.40428,0,0.161343)"/>
    <path style="fill-rule:nonzero;fill:rgb(100%,100%,100%);fill-opacity:1;stroke-width:0.301;stroke-linecap:butt;stroke-linejoin:miter;stroke:rgb(100%,100%,100%);stroke-opacity:1;stroke-miterlimit:3.863;" d="M 107.27554 22.751896 L 107.27554 45.293073 L 132.975649 45.293073 L 132.975649 22.813635 L 128.702332 19.557723 L 128.702332 14.072714 L 124.850489 14.072714 L 124.850489 16.784349 L 120.035279 14.072714 Z M 107.27554 22.751896 " transform="matrix(2.400434,0,0,2.40428,0,0.161343)"/>
    <path style="fill-rule:nonzero;fill:rgb(100%,100%,100%);fill-opacity:1;stroke-width:0.301;stroke-linecap:butt;stroke-linejoin:miter;stroke:rgb(100%,100%,100%);stroke-opacity:1;stroke-miterlimit:3.863;" d="M 99.091797 51.803272 C 92.471899 51.803272 87.176632 46.558719 87.176632 39.928292 L 87.176632 36.433549 L 89.822638 36.433549 L 89.822638 38.602532 C 89.822638 44.570079 94.69806 49.452322 100.657269 49.452322 L 138.331127 49.452322 L 138.331127 51.803272 Z M 99.091797 51.803272 " transform="matrix(2.400434,0,0,2.40428,0,0.161343)"/>
    <path style="fill-rule:nonzero;fill:rgb(100%,100%,100%);fill-opacity:1;stroke-width:0.301;stroke-linecap:butt;stroke-linejoin:miter;stroke:rgb(100%,100%,100%);stroke-opacity:1;stroke-miterlimit:3.863;" d="M 79.411108 14.735594 L 59.190152 14.735594 L 56.181256 22.751896 L 55.219515 23.655232 L 55.219515 25.463531 L 56.423725 32.878691 L 57.806938 32.878691 L 57.806938 37.398624 L 60.15352 37.398624 L 60.15352 32.938805 L 78.148315 32.938805 L 78.148315 37.276771 L 80.314265 37.276771 L 80.314265 32.878691 L 81.759317 32.878691 L 82.722684 25.946069 L 82.660846 23.897314 L 81.518475 22.932238 Z M 79.411108 14.735594 " transform="matrix(2.400434,0,0,2.40428,0,0.161343)"/>
    <path style="fill-rule:evenodd;fill:rgb(100%,100%,100%);fill-opacity:1;stroke-width:0.301;stroke-linecap:butt;stroke-linejoin:miter;stroke:rgb(100%,100%,100%);stroke-opacity:1;stroke-miterlimit:3.863;" d="M 67.736785 84.952158 C 64.246205 84.952158 62.080255 81.215333 63.824731 78.201502 C 65.569208 75.187672 69.904362 75.129182 71.648839 78.201502 C 73.393315 81.215333 71.227365 84.952158 67.736785 84.952158 Z M 67.736785 84.952158 " transform="matrix(2.400434,0,0,2.40428,0,0.161343)"/>
    <path style="fill-rule:nonzero;fill:rgb(100%,100%,100%);fill-opacity:1;stroke-width:0.301;stroke-linecap:butt;stroke-linejoin:miter;stroke:rgb(100%,100%,100%);stroke-opacity:1;stroke-miterlimit:3.863;" d="M 20.552927 86.45826 C 21.275453 86.45826 22.17861 85.554924 22.17861 84.830305 C 22.17861 84.10731 21.576505 83.506169 20.85398 83.506169 L 28.497455 71.751418 L 30.603195 62.893518 L 42.88125 85.616662 L 48.658201 82.662946 C 49.380726 82.662946 49.982831 82.06018 49.982831 81.337186 C 49.982831 80.614191 49.380726 80.011425 48.658201 80.011425 L 46.492251 80.614191 L 35.418405 58.131503 L 37.463934 45.83735 L 40.954515 55.29964 L 49.320516 56.625401 C 50.223673 56.625401 51.004782 55.842292 51.004782 54.937331 C 51.004782 54.032369 50.223673 53.249261 49.320516 53.249261 L 44.023621 52.284185 L 39.629884 40.470944 L 35.958672 40.531058 L 35.237774 40.230488 L 35.537199 38.240222 L 36.319935 37.637456 C 37.223092 37.637456 38.004201 36.854348 38.004201 35.949386 L 38.848775 31.972105 C 39.029407 31.068768 38.126249 30.103692 37.223092 30.103692 L 33.250828 29.803122 C 32.469719 29.681269 31.807404 29.983464 31.745566 30.646344 L 30.181721 39.445755 L 29.579617 40.048521 L 26.51051 39.928292 L 18.746613 48.004708 L 18.746613 57.226542 C 18.746613 58.128254 19.529349 58.914612 20.432506 58.914612 C 21.335663 58.914612 22.116772 58.129879 22.116772 57.226542 L 22.478035 50.053463 L 27.714719 45.050992 L 23.560196 68.617359 L 14.774349 82.599583 Z M 20.552927 86.45826 " transform="matrix(2.400434,0,0,2.40428,0,0.161343)"/>
    <path style="fill-rule:nonzero;fill:rgb(100%,100%,100%);fill-opacity:1;stroke-width:0.301;stroke-linecap:butt;stroke-linejoin:miter;stroke:rgb(100%,100%,100%);stroke-opacity:1;stroke-miterlimit:3.863;" d="M 100.836273 83.145484 L 100.476638 82.482604 L 94.81848 85.616662 L 93.134214 85.616662 L 87.89753 80.011425 L 81.336216 83.507794 L 76.945733 89.8344 L 73.876626 88.14633 C 73.575574 87.905874 73.393315 87.605303 73.393315 87.242994 C 73.393315 86.638603 73.876626 86.15769 74.477104 86.15769 C 74.717945 86.15769 74.958787 86.219429 75.139419 86.399771 L 75.621103 86.638603 L 79.533156 80.191768 L 84.948844 77.600361 L 84.408577 70.607624 L 75.139419 71.5727 C 74.597525 71.5727 74.115841 71.091787 74.115841 70.54751 C 74.115841 70.006483 74.597525 69.523945 75.139419 69.523945 L 84.045687 68.440266 L 84.828423 67.655533 L 84.647792 65.788745 C 83.262951 65.366321 82.241 64.040561 82.241 62.532833 C 82.241 60.664421 83.804845 59.096579 85.67137 59.096579 C 87.536268 59.096579 89.10174 60.664421 89.10174 62.532833 C 89.10174 63.618137 88.559846 64.581588 87.778737 65.244468 L 87.778737 66.932538 L 88.380842 67.897614 L 93.918578 67.535304 L 98.491319 61.146959 C 98.912793 60.604307 98.971376 60.121769 99.51327 60.121769 C 100.055165 60.121769 100.535221 60.604307 100.535221 61.146959 L 95.059322 69.463831 L 89.882849 70.006483 L 90.605374 77.057709 L 94.397007 81.879838 L 100.958322 78.685665 L 102.823219 82.120294 C 102.88343 82.302261 102.94364 82.482604 102.94364 82.724685 C 102.94364 83.327451 102.461956 83.808364 101.859851 83.808364 C 101.378168 83.808364 101.016905 83.569532 100.836273 83.205598 Z M 100.836273 83.145484 " transform="matrix(2.400434,0,0,2.40428,0,0.161343)"/>
    <path style="fill-rule:nonzero;fill:rgb(0%,44.313726%,70.19608%);fill-opacity:1;stroke-width:0.301;stroke-linecap:butt;stroke-linejoin:miter;stroke:rgb(0%,44.313726%,70.19608%);stroke-opacity:1;stroke-miterlimit:3.863;" d="M 123.405438 33.419718 L 116.364067 33.419718 L 116.364067 42.521324 L 109.80438 42.521324 L 109.80438 24.560194 L 120.035279 16.784349 L 130.205967 24.019167 L 130.205967 42.521324 L 123.226434 42.521324 L 123.226434 33.419718 Z M 123.405438 33.419718 " transform="matrix(2.400434,0,0,2.40428,0,0.161343)"/>
    <path style="fill-rule:evenodd;fill:rgb(100%,100%,100%);fill-opacity:1;stroke-width:0.301;stroke-linecap:butt;stroke-linejoin:miter;stroke:rgb(100%,100%,100%);stroke-opacity:1;stroke-miterlimit:3.863;" d="M 123.286644 30.045203 L 116.847378 30.045203 L 116.847378 23.174319 L 123.286644 23.174319 Z M 123.286644 30.045203 " transform="matrix(2.400434,0,0,2.40428,0,0.161343)"/>
    <path style="fill-rule:evenodd;fill:rgb(0%,44.313726%,70.19608%);fill-opacity:1;stroke-width:0.301;stroke-linecap:butt;stroke-linejoin:miter;stroke:rgb(0%,44.313726%,70.19608%);stroke-opacity:1;stroke-miterlimit:3.863;" d="M 75.378633 27.754367 L 63.403258 27.754367 L 63.403258 26.849405 L 75.380261 26.849405 L 75.380261 27.754367 Z M 75.378633 27.754367 " transform="matrix(2.400434,0,0,2.40428,0,0.161343)"/>
    <path style="fill-rule:evenodd;fill:rgb(0%,44.313726%,70.19608%);fill-opacity:1;stroke-width:0.301;stroke-linecap:butt;stroke-linejoin:miter;stroke:rgb(0%,44.313726%,70.19608%);stroke-opacity:1;stroke-miterlimit:3.863;" d="M 77.487627 29.442437 L 60.635203 29.442437 L 60.635203 28.537475 L 77.487627 28.537475 Z M 77.487627 29.442437 " transform="matrix(2.400434,0,0,2.40428,0,0.161343)"/>
    <path style="fill-rule:evenodd;fill:rgb(0%,44.313726%,70.19608%);fill-opacity:1;stroke-width:0.301;stroke-linecap:butt;stroke-linejoin:miter;stroke:rgb(0%,44.313726%,70.19608%);stroke-opacity:1;stroke-miterlimit:3.863;" d="M 75.25984 31.190621 L 63.463469 31.190621 L 63.463469 30.28566 L 75.25984 30.28566 Z M 75.25984 31.190621 " transform="matrix(2.400434,0,0,2.40428,0,0.161343)"/>
    <path style="fill-rule:evenodd;fill:rgb(0%,44.313726%,70.19608%);fill-opacity:1;stroke-width:0.301;stroke-linecap:butt;stroke-linejoin:miter;stroke:rgb(0%,44.313726%,70.19608%);stroke-opacity:1;stroke-miterlimit:3.863;" d="M 58.94931 28.056562 C 57.867149 28.056562 57.144623 26.849405 57.686517 25.885954 C 58.228412 24.922504 59.671836 24.922504 60.21373 25.885954 C 60.755624 26.849405 60.033099 28.056562 58.94931 28.056562 Z M 58.94931 28.056562 " transform="matrix(2.400434,0,0,2.40428,0,0.161343)"/>
    <path style="fill-rule:evenodd;fill:rgb(0%,44.313726%,70.19608%);fill-opacity:1;stroke-width:0.301;stroke-linecap:butt;stroke-linejoin:miter;stroke:rgb(0%,44.313726%,70.19608%);stroke-opacity:1;stroke-miterlimit:3.863;" d="M 79.111683 28.056562 C 78.027894 28.056562 77.305369 26.849405 77.847263 25.885954 C 78.38753 24.922504 79.832581 24.922504 80.372848 25.885954 C 80.91637 26.849405 80.193844 28.056562 79.111683 28.056562 Z M 79.111683 28.056562 " transform="matrix(2.400434,0,0,2.40428,0,0.161343)"/>
    <path style="fill-rule:nonzero;fill:rgb(0%,44.313726%,70.19608%);fill-opacity:1;stroke-width:0.301;stroke-linecap:butt;stroke-linejoin:miter;stroke:rgb(0%,44.313726%,70.19608%);stroke-opacity:1;stroke-miterlimit:3.863;" d="M 57.204834 22.813635 L 59.792257 15.941126 L 78.629999 15.941126 L 80.436313 22.873749 Z M 57.204834 22.813635 " transform="matrix(2.400434,0,0,2.40428,0,0.161343)"/>
  </g>
</svg>

<?xml version="1.0" encoding="utf-8"?>
<!-- Generator: Adobe Illustrator 14.0.0, SVG Export Plug-In . SVG Version: 6.00 Build 43363)  -->
<!DOCTYPE svg PUBLIC "-//W3C//DTD SVG 1.1//EN" "http://www.w3.org/Graphics/SVG/1.1/DTD/svg11.dtd">
<svg version="1.1" id="Calque_1" xmlns="http://www.w3.org/2000/svg" x="0px" y="0px"
     width="154.972px" height="103.847px" viewBox="0 0 154.972 103.847" enable-background="new 0 0 154.972 103.847"
     xml:space="preserve">
<path fill="none" stroke="#000000" stroke-width="0.301" stroke-miterlimit="3.863" d="M11.947,103.576l131.5-0.061
	c6.26,0,11.315-5.063,11.315-11.331l0.06-80.642c0-6.329-5.055-11.392-11.313-11.392H11.466C5.207,0.15,0.15,5.213,0.15,11.542
	v80.823c0,6.268,5.056,11.331,11.315,11.331L11.947,103.576z"/>
    <path fill-rule="evenodd" clip-rule="evenodd" fill="#0071B3"
          d="M9.239,94.656 M145.794,94.656H9.239V9.191h136.555V94.656z"/>
    <path fill="none" stroke="#0071B3" stroke-width="0.301" stroke-miterlimit="3.863" d="M9.239,94.656 M145.794,94.656H9.239V9.191
	h136.555V94.656z"/>
    <polygon fill="#FFFFFF" points="107.276,22.752 107.276,45.293 132.976,45.293 132.976,22.813 128.702,19.558 128.702,14.073 
	124.851,14.073 124.851,16.785 120.036,14.073 "/>
    <polygon fill="none" stroke="#FFFFFF" stroke-width="0.301" stroke-miterlimit="3.863" points="107.276,22.752 107.276,45.293 
	132.976,45.293 132.976,22.813 128.702,19.558 128.702,14.073 124.851,14.073 124.851,16.785 120.036,14.073 "/>
    <path fill="#FFFFFF" d="M99.092,51.803c-6.62,0-11.916-5.244-11.916-11.874v-3.495h2.647v2.169c0,5.967,4.875,10.849,10.834,10.849
	h37.674v2.351H99.092z"/>
    <path fill="none" stroke="#FFFFFF" stroke-width="0.301" stroke-miterlimit="3.863" d="M99.092,51.803
	c-6.62,0-11.916-5.244-11.916-11.874v-3.495h2.647v2.169c0,5.967,4.875,10.849,10.834,10.849h37.674v2.351H99.092z"/>
    <polygon fill="#FFFFFF" points="79.411,14.736 59.19,14.736 56.182,22.752 55.219,23.656 55.219,25.464 56.423,32.878 
	57.807,32.878 57.807,37.398 60.154,37.398 60.154,32.938 78.148,32.938 78.148,37.277 80.314,37.277 80.314,32.878 81.76,32.878 
	82.723,25.946 82.661,23.897 81.519,22.933 "/>
    <polygon fill="none" stroke="#FFFFFF" stroke-width="0.301" stroke-miterlimit="3.863" points="79.411,14.736 59.19,14.736 
	56.182,22.752 55.219,23.656 55.219,25.464 56.423,32.878 57.807,32.878 57.807,37.398 60.154,37.398 60.154,32.938 78.148,32.938 
	78.148,37.277 80.314,37.277 80.314,32.878 81.76,32.878 82.723,25.946 82.661,23.897 81.519,22.933 "/>
    <path fill-rule="evenodd" clip-rule="evenodd" fill="#FFFFFF" d="M67.737,84.952c-3.491,0-5.657-3.737-3.912-6.75
	c1.745-3.014,6.079-3.073,7.824,0C73.394,81.215,71.228,84.952,67.737,84.952z"/>
    <path fill="none" stroke="#FFFFFF" stroke-width="0.301" stroke-miterlimit="3.863" d="M67.737,84.952
	c-3.491,0-5.657-3.737-3.912-6.75c1.745-3.014,6.079-3.073,7.824,0C73.394,81.215,71.228,84.952,67.737,84.952z"/>
    <path fill="#FFFFFF" d="M20.553,86.459c0.723,0,1.625-0.904,1.625-1.628c0-0.723-0.602-1.325-1.324-1.325l7.643-11.754l2.107-8.858
	l12.277,22.722l5.778-2.953c0.722,0,1.324-0.603,1.324-1.326s-0.602-1.326-1.324-1.326l-2.167,0.603L35.418,58.131l2.046-12.294
	l3.49,9.462l8.366,1.326c0.903,0,1.685-0.783,1.685-1.688s-0.782-1.688-1.685-1.688l-5.296-0.965l-4.394-11.813l-3.671,0.06
	l-0.722-0.301l0.301-1.989l0.782-0.603c0.903,0,1.685-0.783,1.685-1.688l0.843-3.978c0.181-0.904-0.722-1.868-1.625-1.868
	l-3.972-0.301c-0.782-0.121-1.444,0.181-1.505,0.844l-1.564,8.799l-0.602,0.603l-3.07-0.121l-7.763,8.077v9.221
	c0,0.903,0.782,1.688,1.685,1.688s1.685-0.784,1.685-1.688l0.361-7.172l5.236-5.003l-4.153,23.566l-8.786,13.983L20.553,86.459z"/>
    <path fill="none" stroke="#FFFFFF" stroke-width="0.301" stroke-miterlimit="3.863" d="M20.553,86.459
	c0.723,0,1.625-0.904,1.625-1.628c0-0.723-0.602-1.325-1.324-1.325l7.643-11.754l2.107-8.858l12.277,22.722l5.778-2.953
	c0.722,0,1.324-0.603,1.324-1.326s-0.602-1.326-1.324-1.326l-2.167,0.603L35.418,58.131l2.046-12.294l3.49,9.462l8.366,1.326
	c0.903,0,1.685-0.783,1.685-1.688s-0.782-1.688-1.685-1.688l-5.296-0.965l-4.394-11.813l-3.671,0.06l-0.722-0.301l0.301-1.989
	l0.782-0.603c0.903,0,1.685-0.783,1.685-1.688l0.843-3.978c0.181-0.904-0.722-1.868-1.625-1.868l-3.972-0.301
	c-0.782-0.121-1.444,0.181-1.505,0.844l-1.564,8.799l-0.602,0.603l-3.07-0.121l-7.763,8.077v9.221c0,0.903,0.782,1.688,1.685,1.688
	s1.685-0.784,1.685-1.688l0.361-7.172l5.236-5.003l-4.153,23.566l-8.786,13.983L20.553,86.459z"/>
    <path fill="#FFFFFF" d="M100.837,83.145l-0.36-0.663l-5.658,3.134h-1.685l-5.236-5.605l-6.561,3.496l-4.392,6.328l-3.069-1.688
	c-0.301-0.241-0.482-0.542-0.482-0.904c0-0.604,0.482-1.085,1.083-1.085c0.241,0,0.482,0.062,0.662,0.241l0.482,0.24l3.912-6.448
	l5.416-2.591l-0.541-6.992l-9.269,0.965c-0.541,0-1.023-0.482-1.023-1.025c0-0.541,0.482-1.024,1.023-1.024l8.907-1.084l0.783-0.784
	l-0.182-1.868c-1.384-0.422-2.406-1.748-2.406-3.255c0-1.868,1.564-3.436,3.43-3.436s3.431,1.567,3.431,3.436
	c0,1.085-0.542,2.049-1.323,2.712v1.688l0.602,0.964l5.537-0.362l4.574-6.388c0.42-0.543,0.48-1.025,1.022-1.025
	c0.541,0,1.022,0.482,1.022,1.025l-5.477,8.317l-5.176,0.543l0.723,7.051l3.791,4.822l6.561-3.194l1.865,3.435
	c0.061,0.182,0.12,0.362,0.12,0.604c0,0.603-0.481,1.084-1.083,1.084c-0.482,0-0.843-0.24-1.023-0.603V83.145z"/>
    <path fill="none" stroke="#FFFFFF" stroke-width="0.301" stroke-miterlimit="3.863" d="M100.837,83.145l-0.36-0.663l-5.658,3.134
	h-1.685l-5.236-5.605l-6.561,3.496l-4.392,6.328l-3.069-1.688c-0.301-0.241-0.482-0.542-0.482-0.904
	c0-0.604,0.482-1.085,1.083-1.085c0.241,0,0.482,0.062,0.662,0.241l0.482,0.24l3.912-6.448l5.416-2.591l-0.541-6.992l-9.269,0.965
	c-0.541,0-1.023-0.482-1.023-1.025c0-0.541,0.482-1.024,1.023-1.024l8.907-1.084l0.783-0.784l-0.182-1.868
	c-1.384-0.422-2.406-1.748-2.406-3.255c0-1.868,1.564-3.436,3.43-3.436s3.431,1.567,3.431,3.436c0,1.085-0.542,2.049-1.323,2.712
	v1.688l0.602,0.964l5.537-0.362l4.574-6.388c0.42-0.543,0.48-1.025,1.022-1.025c0.541,0,1.022,0.482,1.022,1.025l-5.477,8.317
	l-5.176,0.543l0.723,7.051l3.791,4.822l6.561-3.194l1.865,3.435c0.061,0.182,0.12,0.362,0.12,0.604c0,0.603-0.481,1.084-1.083,1.084
	c-0.482,0-0.843-0.24-1.023-0.603V83.145z"/>
    <polygon fill="#0071B3" points="123.405,33.42 116.364,33.42 116.364,42.521 109.805,42.521 109.805,24.561 120.036,16.785 
	130.206,24.019 130.206,42.521 123.226,42.521 123.226,33.42 "/>
    <polygon fill="none" stroke="#0071B3" stroke-width="0.301" stroke-miterlimit="3.863" points="123.405,33.42 116.364,33.42 
	116.364,42.521 109.805,42.521 109.805,24.561 120.036,16.785 130.206,24.019 130.206,42.521 123.226,42.521 123.226,33.42 "/>
    <path fill-rule="evenodd" clip-rule="evenodd" fill="#FFFFFF"
          d="M116.846,30.045 M123.286,30.045h-6.439v-6.871h6.439V30.045z"/>
    <path fill="none" stroke="#FFFFFF" stroke-width="0.301" stroke-miterlimit="3.863" d="M116.846,30.045 M123.286,30.045h-6.439
	v-6.871h6.439V30.045z"/>
    <path fill-rule="evenodd" clip-rule="evenodd" fill="#0071B3"
          d="M63.404,27.754 M75.379,27.754H63.404V26.85h11.976V27.754z"/>
    <path fill="none" stroke="#0071B3" stroke-width="0.301" stroke-miterlimit="3.863" d="M63.404,27.754 M75.379,27.754H63.404V26.85
	h11.976V27.754z"/>
    <path fill-rule="evenodd" clip-rule="evenodd" fill="#0071B3"
          d="M60.635,29.442 M77.487,29.442H60.636v-0.904h16.851V29.442z"/>
    <path fill="none" stroke="#0071B3" stroke-width="0.301" stroke-miterlimit="3.863" d="M60.635,29.442 M77.487,29.442H60.636v-0.904
	h16.851V29.442z"/>
    <path fill-rule="evenodd" clip-rule="evenodd" fill="#0071B3"
          d="M63.463,31.19 M75.26,31.19H63.463v-0.904H75.26V31.19z"/>
    <path fill="none" stroke="#0071B3" stroke-width="0.301" stroke-miterlimit="3.863" d="M63.463,31.19 M75.26,31.19H63.463v-0.904
	H75.26V31.19z"/>
    <path fill-rule="evenodd" clip-rule="evenodd" fill="#0071B3" d="M58.95,28.056c-1.083,0-1.805-1.206-1.264-2.17
	c0.542-0.964,1.986-0.964,2.528,0C60.756,26.85,60.033,28.056,58.95,28.056z"/>
    <path fill="none" stroke="#0071B3" stroke-width="0.301" stroke-miterlimit="3.863" d="M58.95,28.056
	c-1.083,0-1.805-1.206-1.264-2.17c0.542-0.964,1.986-0.964,2.528,0C60.756,26.85,60.033,28.056,58.95,28.056z"/>
    <path fill-rule="evenodd" clip-rule="evenodd" fill="#0071B3" d="M79.112,28.056c-1.084,0-1.807-1.206-1.265-2.17
	c0.541-0.964,1.985-0.964,2.526,0C80.917,26.85,80.194,28.056,79.112,28.056z"/>
    <path fill="none" stroke="#0071B3" stroke-width="0.301" stroke-miterlimit="3.863" d="M79.112,28.056
	c-1.084,0-1.807-1.206-1.265-2.17c0.541-0.964,1.985-0.964,2.526,0C80.917,26.85,80.194,28.056,79.112,28.056z"/>
    <polygon fill="#0071B3" points="57.205,22.813 59.792,15.941 78.63,15.941 80.436,22.873 "/>
    <polygon fill="none" stroke="#0071B3" stroke-width="0.301" stroke-miterlimit="3.863" points="57.205,22.813 59.792,15.941 
	78.63,15.941 80.436,22.873 "/>
</svg>
